.local/share/icons/Gruvbox-Plus-Dark/emblems/48/emblem-generic.svg

<svg xmlns="http://www.w3.org/2000/svg" width="48" height="48" version="1.1" viewBox="0 0 48 48">
 <circle style="fill:#282828" cx="24" cy="24" r="20"/>
 <path style="fill:#ebdbb2" d="M 22 10 L 22 19.171875 L 15.515625 12.685547 L 12.685547 15.515625 L 19.171875 22 L 10 22 L 10 26 L 19.171875 26 L 12.685547 32.484375 L 15.515625 35.314453 L 22 28.828125 L 22 38 L 26 38 L 26 28.828125 L 32.484375 35.314453 L 35.314453 32.484375 L 28.828125 26 L 38 26 L 38 22 L 28.828125 22 L 35.314453 15.515625 L 32.484375 12.685547 L 26 19.171875 L 26 10 L 22 10 z"/>
</svg>

<svg width="48" height="48" version="1.1" xmlns="http://www.w3.org/2000/svg">
  <circle cx="24" cy="24" r="20" fill="#504945"/>
  <path d="m22 10v9.1719l-6.4844-6.4863-2.8301 2.8301 6.4863 6.4844h-9.1719v4h9.1719l-6.4863 6.4844 2.8301 2.8301 6.4844-6.4863v9.1719h4v-9.1719l6.4844 6.4863 2.8301-2.8301-6.4863-6.4844h9.1719v-4h-9.1719l6.4863-6.4844-2.8301-2.8301-6.4844 6.4863v-9.1719z" fill="#ebdbb2"/>
</svg>
